icons/mention-24.svg

<svg width="24" height="24" viewBox="0 0 24 24" xmlns="http://www.w3.org/2000/svg">
  <path fill-rule="evenodd" clip-rule="evenodd" d="M20.2258 7.25086C17.6029 2.7079 11.7938 1.15136 7.25086 3.77424C2.7079 6.39712 1.15136 12.2062 3.77424 16.7491C6.39712 21.2921 12.2062 22.8486 16.7491 20.2258C17.1079 20.0187 17.5666 20.1416 17.7737 20.5003C17.9808 20.859 17.8579 21.3177 17.4991 21.5248C12.2387 24.5619 5.5123 22.7595 2.47521 17.4991C-0.561888 12.2387 1.24046 5.5123 6.50086 2.47521C11.7613 -0.561888 18.4877 1.24046 21.5248 6.50086C22.4059 8.02696 22.88 9.67814 22.9799 11.3269C22.9931 11.3825 23 11.4404 23 11.5V13.75C23 15.683 21.433 17.25 19.5 17.25C18.136 17.25 16.9543 16.4698 16.3767 15.3313C15.372 16.6494 13.7853 17.5 12 17.5C8.96243 17.5 6.5 15.0376 6.5 12C6.5 8.96243 8.96243 6.5 12 6.5C14.9196 6.5 17.3079 8.77496 17.489 11.6489C17.4962 11.6908 17.5 11.7338 17.5 11.7778V13.75C17.5 14.8546 18.3954 15.75 19.5 15.75C20.6046 15.75 21.5 14.8546 21.5 13.75V11.9839C21.4989 10.3755 21.0888 8.74572 20.2258 7.25086ZM16 12C16 9.79086 14.2091 8 12 8C9.79086 8 8 9.79086 8 12C8 14.2091 9.79086 16 12 16C14.2091 16 16 14.2091 16 12Z"/>
</svg>

<svg xmlns="http://www.w3.org/2000/svg" width="24" height="24" viewBox="0 0 24 24"><path fill-rule="evenodd" d="M20.226 7.25a9.498 9.498 0 10-3.477 12.976.75.75 0 01.75 1.299c-5.26 3.037-11.987 1.235-15.024-4.026C-.562 12.24 1.24 5.512 6.501 2.475 11.76-.562 18.488 1.24 21.525 6.501a10.956 10.956 0 011.455 4.826c.013.056.02.113.02.173v2.25a3.5 3.5 0 01-6.623 1.581 5.5 5.5 0 111.112-3.682.76.76 0 01.011.129v1.972a2 2 0 104 0v-1.766a9.452 9.452 0 00-1.274-4.733zM16 12a4 4 0 10-8 0 4 4 0 008 0z"/></svg>
